X: 32
T: Uncle Jay
C: Mark Simos
N: Cambridge, Massachusetts
B: "Gems - The Best of the Country Dance and Song Society", CDSS, 1993, p.80
Z: 2011 John Chambers <jc:trillian.mit.edu>
R: reel
M: C|
L: 1/8
K: D
AG !Segno!||\
"D"F2AF "A"EFGE | "D"FD-DE D2dc | "Bm"BABc d2B2 | "Em"efed "A"BA2G |
"D"F2AF "A"EFGE | "D"FD3 D2Bc | "Bm"(3dcB cA "F#m"BAFE | "Bm"FB2E "A"B2A2 ||
"D"F2AF "A"EF (3GFE | "D"FD2E D2dc | "Bm"BABc "D"defd | "Em"efed "F#m"BAFA |
"Bm"BFAF "Em"EFDE | "Am7"FD2E "D7"D2B=c | "Gmaj7"dedB AB"F#m7"FE | "F#m7"FB3 "Bm"B4 ||
"Em"e4- ef2e | "Em"{f}edBA "Bm"B4 | "Em"e4- "A7"ef2e | "D"d2bd abaf |
"Em"e4- eefd | "Gmaj7"efed Be"F#m7"AE | "Bm"FB3 "Em"BEAB | "Bm"FB2F (3B2c2d2 ||
"Em"e4- ef{a}fe | "Em"{f}edBA "Bm"B2 (3Bcd | "Em"e4 "A7"{de}f3e | "D"d2bd abaf |
"Em"eBef gBfd | "Gmaj7"efdB ABFE | "Bm"FB2"Em"G B2FE | "G"DB2E "A"B2A2 "D.S."y|]

%%sep 1 1 500
%%sep 1 1 500
